X:1
T:Title
%%score 1 2
L:1/8
Q:1/4=95
M:3/4
K:G
V:1 treble nm="Grand Piano, Unnamed-000"
V:2 bass nm="Choir Pad, Higher Ground"
V:1
 [B,D][B,D] [B,G] [DB]3 | [DB][DA] [DG] [CE]3 | [EA][EG] [CE] [B,D]3 | [B,G][DB] [DG] [DA]3 | %4
w: By~Charles~Hutchinson~Gabriel * * *||||
 [CD][B,D] [B,G] [DB]3 | [DB][DA] [DG] [CE]3 | [EA][EG] [CE][B,D] [B,G][DB]- | [DB] [CA]2 [B,G]3 | %8
w: ||||
 [B,D][B,G] [DB] [Dd]3 | [Dd][Dc] [DB] [Dc]3 | D[DF] [FA] [Ac]3 | [Ac][GB] [FA] [GB]3 | %12
w: ||||
 [Dd][Dd] [DB] [DG]3 | [DB][DA] [DG] [CE]3 | [EA][EG] [CE][B,D] [B,G][DB]- | [DB] [CA]2 [B,G]3- | %16
w: ||||
 [B,G]4 z2 |] %17
w: |
V:2
 [G,,G,][G,,G,] [G,,G,] [G,,G,]3 | [G,,G,][A,,F,] [B,,G,] [C,G,]3 | [C,G,][C,G,] [C,G,] [G,,G,]3 | %3
 [G,,G,][G,,G,] [B,,G,] [D,F,]3 | [D,F,][G,,G,] [G,,G,] [G,,G,]3 | [G,,G,][A,,F,] [B,,G,] [C,G,]3 | %6
 [C,G,][C,G,] [C,G,][D,G,] [D,G,][D,G,]- | [D,G,] [D,F,]2 [G,,G,]3 | G,G, G, [G,B,]3 | %9
 [G,B,][G,A,] G, [D,A,]3 | [D,F,][D,A,] [D,D] [D,D]3 | [D,D][D,D] [D,D] [G,D]3 | %12
 [G,B,][G,B,] [G,D] [G,B,]3 | [G,,G,][A,,F,] [B,,G,] [C,G,]3 | %14
 [C,G,][C,G,] [C,G,][D,G,] [D,G,][D,G,]- | [D,G,] [D,F,]2 [G,,D,]3- | [G,,D,]4 z2 |] %17

